X: 38013
T: Spellan The Fiddler
R: hornpipe
M: 4/4
K: Gmajor
|:cB/A/|G2 (3BAG dBga|bgdB cBAG|Fd^cd Ad^cd|(3d^cd cA FDEF|
G2 (3BAG dBga|bgdB cBAG|fecA edBG|(3FGA (3DEF G2:|
|:ga|bgdB GBdg|afcA FAcf|fgab c'3b|agfe (3ded (3cBA|
G2 (3BAG dBga|bgdB cBAG|fecA edBG|(3FGA (3DEF G2:|

